X:62
T:Bonaparte Crossing the Rocky Mountains
M:4/4
L:1/8
K:C
|:"Am" A2 AB AGEG|"C" cdec "G" d2 eg|"Am" aged cAGE|\
"Em" G2 GA G2 cB|"Am" A2 AB AGEG|"C" cdec "G" d2 eg|
"Am" aged "G" cABG|1 "Am" A2 AB A2 cB:|2 "Am" A2 AB A2 eg|: "A" aged ^cdeg|\
age^c "G" d2 eg|"Am" aged cAGE|
"Em" G2 (GA G2) eB|"Am" A2 AB AGEG|"C" cdec "G" d2 eg|\
"Am" aged "G" cABG|1 "Am" A2 AB A2 cB:|2 "Am" A2 AB A4|]
